src/lib/packages/icons/src/assets/filled/moon.svg

<svg width="24" height="24" viewBox="0 0 24 24" fill="none" xmlns="http://www.w3.org/2000/svg">
<path d="M12.133 3C12.136 3 12.14 3 12.143 3C12.462 3 12.6 3.39301 12.36 3.60001C10.679 5.04701 9.75503 7.32199 10.226 9.77399C10.749 12.495 12.988 14.566 15.773 14.938C17.532 15.173 19.161 14.728 20.456 13.839C20.719 13.658 21.068 13.897 20.989 14.203C19.885 18.519 15.626 21.595 10.767 20.902C6.73101 20.326 3.54402 17.087 3.06602 13.095C2.81602 11.013 3.289 9.05101 4.27 7.42001C5.86 4.77401 8.78601 3 12.133 3Z" fill="currentColor"/>
</svg>

<svg xmlns="http://www.w3.org/2000/svg" width="24" height="24" fill="none"><path fill="currentColor" d="M12.133 3h.01c.319 0 .457.393.217.6a6.46 6.46 0 0 0-2.134 6.174c.523 2.721 2.762 4.792 5.547 5.164a6.645 6.645 0 0 0 4.683-1.099c.263-.181.612.058.533.364-1.104 4.316-5.363 7.392-10.222 6.699-4.036-.576-7.223-3.815-7.701-7.807A8.883 8.883 0 0 1 4.27 7.42 9.153 9.153 0 0 1 12.133 3Z"/></svg>
